X: 34570
T: Rippling Water
R: jig
M: 6/8
K: Gmajor
f|gfa gfe|d^ce dBG|cAF D2 d|edB G2 d|
gfa gfe|d^ce dBG|cAF DEF|G3 G2 f|
gfa gfe|d^ce dBG|cAF D2 d|edB G2 d|
gfa gfe|d^ce dBd|fed cBA|G3 G2||
K: DMaj
d|add f/g/fd|add f/g/fd|Ace gfe|def a>dd|
afd fed|fed afd|Ace gfe|ddd d2 d|
f/g/fd f/g/fd|f/g/fd f/g/fd|Ace gfe|def a2 d|
f/g/fd f/g/fd|f/g/fd f/g/fd|Ace gfe|ddd de||

